icons/line/color-swatch.svg

<svg width="24" height="24" viewBox="0 0 24 24" fill="none" xmlns="http://www.w3.org/2000/svg">
<path fill-rule="evenodd" clip-rule="evenodd" d="M4 5C4 4.44772 4.44772 4 5 4H9C9.55228 4 10 4.44772 10 5V8V18V19C10 19.1733 9.93978 19.4555 9.78847 19.6657C9.67386 19.8249 9.47408 20 9 20H8.99404H8.98807H8.98209H8.97609H8.97008H8.96406H8.95802H8.95197H8.94591H8.93983H8.93374H8.92764H8.92153H8.9154H8.90926H8.9031H8.89693H8.89075H8.88456H8.87835H8.87213H8.8659H8.85966H8.8534H8.84713H8.84085H8.83455H8.82825H8.82193H8.81559H8.80925H8.80289H8.79652H8.79014H8.78375H8.77734H8.77092H8.76449H8.75805H8.75159H8.74512H8.73865H8.73215H8.72565H8.71914H8.71261H8.70607H8.69952H8.69296H8.68638H8.6798H8.6732H8.66659H8.65997H8.65334H8.6467H8.64004H8.63337H8.6267H8.62001H8.61331H8.60659H8.59987H8.59314H8.58639H8.57963H8.57287H8.56609H8.5593H8.5525H8.54569H8.53886H8.53203H8.52518H8.51833H8.51146H8.50459H8.4977H8.4908H8.48389H8.47697H8.47004H8.4631H8.45615H8.44919H8.44222H8.43524H8.42824H8.42124H8.41423H8.4072H8.40017H8.39313H8.38607H8.37901H8.37193H8.36485H8.35776H8.35065H8.34354H8.33641H8.32928H8.32214H8.31498H8.30782H8.30065H8.29347H8.28628H8.27907H8.27186H8.26464H8.25741H8.25017H8.24293H8.23567H8.2284H8.22112H8.21384H8.20654H8.19924H8.19193H8.1846H8.17727H8.16993H8.16258H8.15522H8.14786H8.14048H8.1331H8.1257H8.1183H8.11089H8.10347H8.09604H8.0886H8.08116H8.0737H8.06624H8.05877H8.05129H8.0438H8.0363H8.0288H8.02129H8.01376H8.00623H7.9987H7.99115H7.9836H7.97603H7.96846H7.96089H7.9533H7.9457H7.9381H7.93049H7.92288H7.91525H7.90762H7.89998H7.89233H7.88467H7.87701H7.86934H7.86166H7.85397H7.84628H7.83858H7.83087H7.82315H7.81543H7.8077H7.79996H7.79221H7.78446H7.7767H7.76894H7.76116H7.75338H7.7456H7.7378H7.73H7.72219H7.71438H7.70656H7.69873H7.69089H7.68305H7.6752H7.66735H7.65949H7.65162H7.64374H7.63586H7.62797H7.62008H7.61218H7.60427H7.59636H7.58844H7.58052H7.57258H7.56465H7.5567H7.54875H7.5408H7.53283H7.52487H7.51689H7.50891H7.50093H7.49294H7.48494H7.47694H7.46893H7.46091H7.45289H7.44487H7.43684H7.4288H7.42076H7.41271H7.40466H7.3966H7.38854H7.38047H7.3724H7.36432H7.35623H7.34814H7.34005H7.33195H7.32384H7.31573H7.30762H7.2995H7.29138H7.28325H7.27511H7.26697H7.25883H7.25068H7.24253H7.23437H7.22621H7.21804H7.20987H7.20169H7.19351H7.18533H7.17714H7.16895H7.16075H7.15255H7.14434H7.13613H7.12792H7.1197H7.11147H7.10325H7.09502H7.08678H7.07854H7.0703H7.06205H7.0538H7.04555H7.03729H7.02903H7.02076H7.01249H7.00422H6.99594H6.98767H6.97938H6.9711H6.96281H6.95451H6.94621H6.93791H6.92961H6.9213H6.91299H6.90468H6.89637H6.88805H6.87972H6.8714H6.86307H6.85474H6.8464H6.83807H6.82973H6.82138H6.81304H6.80469H6.79634H6.78798H6.77963H6.77127H6.76291H6.75454H6.74618H6.73781H6.72944H6.72106H6.71269H6.70431H6.69593H6.68755H6.67916H6.67077H6.66238H6.65399H6.6456H6.6372H6.62881H6.62041H6.61201H6.6036H6.5952H6.58679H6.57838H6.56997H6.56156H6.55315H6.54473H6.53632H6.5279H6.51948H6.51106H6.50264H6.49421H6.48579H6.47736H6.46893H6.4605H6.45207H6.44364H6.43521H6.42678H6.41834H6.40991H6.40147H6.39303H6.38459H6.37615H6.36771H6.35927H6.35083H6.34239H6.33395H6.3255H6.31706H6.30861H6.30017H6.29172H6.28328H6.27483H6.26638H6.25793H6.24949H6.24104H6.23259H6.22414H6.21569H6.20724H6.19879H6.19034H6.1819H6.17345H6.165H6.15655H6.1481H6.13965H6.1312H6.12275H6.1143H6.10586H6.09741H6.08896H6.08052H6.07207H6.06362H6.05518H6.04673H6.03829H6.02985H6.0214H6.01296H6.00452H5.99608H5.98764H5.9792H5.97076H5.96233H5.95389H5.94545H5.93702H5.92859H5.92016H5.91172H5.90329H5.89487H5.88644H5.87801H5.86959H5.86117H5.85274H5.84432H5.8359H5.82749H5.81907H5.81066H5.80224H5.79383H5.78542H5.77702H5.76861H5.76021H5.7518H5.7434H5.73501H5.72661H5.71821H5.70982H5.70143H5.69304H5.68466H5.67627H5.66789H5.65951H5.65113H5.64276H5.63439H5.62602H5.61765H5.60928H5.60092H5.59256H5.5842H5.57585H5.5675H5.55915H5.5508H5.54245H5.53411H5.52577H5.51744H5.5091H5.50077H5.49245H5.48412H5.4758H5.46748H5.45917H5.45086H5.44255H5.43424H5.42594H5.41764H5.40935H5.40106H5.39277H5.38448H5.3762H5.36792H5.35965H5.35138H5.34311H5.33485H5.32659H5.31833H5.31008H5.30183H5.29358H5.28534H5.27711H5.26887H5.26064H5.25242H5.2442H5.23598H5.22777H5.21956H5.21135H5.20315H5.19496H5.18677H5.17858H5.1704H5.16222H5.15404H5.14587H5.13771H5.12955H5.12139H5.11324H5.1051H5.09696H5.08882H5.08069H5.07256H5.06444H5.05632H5.04821H5.0401H5.032H5.0239H5.01581H5.00772H4.99964C4.44759 20 4 19.5525 4 19V5ZM19 22H9H8.99404H8.98807H8.98209H8.97609H8.97008H8.96406H8.95802H8.95197H8.94591H8.93983H8.93374H8.92764H8.92153H8.9154H8.90926H8.9031H8.89693H8.89075H8.88456H8.87835H8.87213H8.8659H8.85966H8.8534H8.84713H8.84085H8.83455H8.82825H8.82193H8.81559H8.80925H8.80289H8.79652H8.79014H8.78375H8.77734H8.77092H8.76449H8.75805H8.75159H8.74512H8.73865H8.73215H8.72565H8.71914H8.71261H8.70607H8.69952H8.69296H8.68638H8.6798H8.6732H8.66659H8.65997H8.65334H8.6467H8.64004H8.63337H8.6267H8.62001H8.61331H8.60659H8.59987H8.59314H8.58639H8.57963H8.57287H8.56609H8.5593H8.5525H8.54569H8.53886H8.53203H8.52518H8.51833H8.51146H8.50459H8.4977H8.4908H8.48389H8.47697H8.47004H8.4631H8.45615H8.44919H8.44222H8.43524H8.42824H8.42124H8.41423H8.4072H8.40017H8.39313H8.38607H8.37901H8.37193H8.36485H8.35776H8.35065H8.34354H8.33641H8.32928H8.32214H8.31498H8.30782H8.30065H8.29347H8.28628H8.27907H8.27186H8.26464H8.25741H8.25017H8.24293H8.23567H8.2284H8.22112H8.21384H8.20654H8.19924H8.19193H8.1846H8.17727H8.16993H8.16258H8.15522H8.14786H8.14048H8.1331H8.1257H8.1183H8.11089H8.10347H8.09604H8.0886H8.08116H8.0737H8.06624H8.05877H8.05129H8.0438H8.0363H8.0288H8.02129H8.01376H8.00623H7.9987H7.99115H7.9836H7.97603H7.96846H7.96089H7.9533H7.9457H7.9381H7.93049H7.92288H7.91525H7.90762H7.89998H7.89233H7.88467H7.87701H7.86934H7.86166H7.85397H7.84628H7.83858H7.83087H7.82315H7.81543H7.8077H7.79996H7.79221H7.78446H7.7767H7.76894H7.76116H7.75338H7.7456H7.7378H7.73H7.72219H7.71438H7.70656H7.69873H7.69089H7.68305H7.6752H7.66735H7.65949H7.65162H7.64374H7.63586H7.62797H7.62008H7.61218H7.60427H7.59636H7.58844H7.58052H7.57258H7.56465H7.5567H7.54875H7.5408H7.53283H7.52487H7.51689H7.50891H7.50093H7.49294H7.48494H7.47694H7.46893H7.46091H7.45289H7.44487H7.43684H7.4288H7.42076H7.41271H7.40466H7.3966H7.38854H7.38047H7.3724H7.36432H7.35623H7.34814H7.34005H7.33195H7.32384H7.31573H7.30762H7.2995H7.29138H7.28325H7.27511H7.26697H7.25883H7.25068H7.24253H7.23437H7.22621H7.21804H7.20987H7.20169H7.19351H7.18533H7.17714H7.16895H7.16075H7.15255H7.14434H7.13613H7.12792H7.1197H7.11147H7.10325H7.09502H7.08678H7.07854H7.0703H7.06205H7.0538H7.04555H7.03729H7.02903H7.02076H7.01249H7.00422H6.99594H6.98767H6.97938H6.9711H6.96281H6.95451H6.94621H6.93791H6.92961H6.9213H6.91299H6.90468H6.89637H6.88805H6.87972H6.8714H6.86307H6.85474H6.8464H6.83807H6.82973H6.82138H6.81304H6.80469H6.79634H6.78798H6.77963H6.77127H6.76291H6.75454H6.74618H6.73781H6.72944H6.72106H6.71269H6.70431H6.69593H6.68755H6.67916H6.67077H6.66238H6.65399H6.6456H6.6372H6.62881H6.62041H6.61201H6.6036H6.5952H6.58679H6.57838H6.56997H6.56156H6.55315H6.54473H6.53632H6.5279H6.51948H6.51106H6.50264H6.49421H6.48579H6.47736H6.46893H6.4605H6.45207H6.44364H6.43521H6.42678H6.41834H6.40991H6.40147H6.39303H6.38459H6.37615H6.36771H6.35927H6.35083H6.34239H6.33395H6.3255H6.31706H6.30861H6.30017H6.29172H6.28328H6.27483H6.26638H6.25793H6.24949H6.24104H6.23259H6.22414H6.21569H6.20724H6.19879H6.19034H6.1819H6.17345H6.165H6.15655H6.1481H6.13965H6.1312H6.12275H6.1143H6.10586H6.09741H6.08896H6.08052H6.07207H6.06362H6.05518H6.04673H6.03829H6.02985H6.0214H6.01296H6.00452H5.99608H5.98764H5.9792H5.97076H5.96233H5.95389H5.94545H5.93702H5.92859H5.92016H5.91172H5.90329H5.89487H5.88644H5.87801H5.86959H5.86117H5.85274H5.84432H5.8359H5.82749H5.81907H5.81066H5.80224H5.79383H5.78542H5.77702H5.76861H5.76021H5.7518H5.7434H5.73501H5.72661H5.71821H5.70982H5.70143H5.69304H5.68466H5.67627H5.66789H5.65951H5.65113H5.64276H5.63439H5.62602H5.61765H5.60928H5.60092H5.59256H5.5842H5.57585H5.5675H5.55915H5.5508H5.54245H5.53411H5.52577H5.51744H5.5091H5.50077H5.49245H5.48412H5.4758H5.46748H5.45917H5.45086H5.44255H5.43424H5.42594H5.41764H5.40935H5.40106H5.39277H5.38448H5.3762H5.36792H5.35965H5.35138H5.34311H5.33485H5.32659H5.31833H5.31008H5.30183H5.29358H5.28534H5.27711H5.26887H5.26064H5.25242H5.2442H5.23598H5.22777H5.21956H5.21135H5.20315H5.19496H5.18677H5.17858H5.1704H5.16222H5.15404H5.14587H5.13771H5.12955H5.12139H5.11324H5.1051H5.09696H5.08882H5.08069H5.07256H5.06444H5.05632H5.04821H5.0401H5.032H5.0239H5.01581H5.00772H4.99964C3.34255 22 2 20.6566 2 19V5C2 3.34315 3.34315 2 5 2H9C10.6569 2 12 3.34315 12 5V5.59225C13.1779 4.53688 14.9894 4.57516 16.1213 5.70711L18.2929 7.87868C19.4248 9.01063 19.4631 10.8221 18.4078 12H19C20.6569 12 22 13.3431 22 15V19C22 20.6569 20.6569 22 19 22ZM12 15.5858V8.41421L13.2929 7.12132C13.6834 6.7308 14.3166 6.7308 14.7071 7.12132L16.8787 9.29289C17.2692 9.68342 17.2692 10.3166 16.8787 10.7071L15.2929 12.2929L12 15.5858ZM12 19V18.4142L16.4142 14H19C19.5523 14 20 14.4477 20 15V19C20 19.5523 19.5523 20 19 20H11.8335C11.9549 19.6332 12 19.2804 12 19ZM7 16C6.44772 16 6 16.4477 6 17C6 17.5523 6.44772 18 7 18H7.01C7.56228 18 8.01 17.5523 8.01 17C8.01 16.4477 7.56228 16 7.01 16H7Z" fill="currentColor"/>
</svg>

<svg width="24" height="24" fill="none" xmlns="http://www.w3.org/2000/svg"><path fill-rule="evenodd" clip-rule="evenodd" d="M4 5a1 1 0 011-1h4a1 1 0 011 1v14c0 .173-.06.456-.212.666-.114.159-.314.334-.788.334H5a1 1 0 01-1-1V5zm15 17H5a3 3 0 01-3-3V5a3 3 0 013-3h4a3 3 0 013 3v.592a3 3 0 014.121.115l2.172 2.172A3 3 0 0118.408 12H19a3 3 0 013 3v4a3 3 0 01-3 3zm-7-6.414V8.414l1.293-1.293a1 1 0 011.414 0l2.172 2.172a1 1 0 010 1.414l-1.586 1.586L12 15.586zM12 19v-.586L16.414 14H19a1 1 0 011 1v4a1 1 0 01-1 1h-7.166c.12-.367.166-.72.166-1zm-5-3a1 1 0 100 2h.01a1 1 0 100-2H7z" fill="currentColor"/></svg>
